epam-assets/icon-sources/18/social-group.svg

<svg width="18" height="18" viewBox="0 0 18 18" fill="none" xmlns="http://www.w3.org/2000/svg">
<path fill-rule="evenodd" clip-rule="evenodd" d="M12 8.25C13.245 8.25 14.2425 7.245 14.2425 6C14.2425 4.755 13.245 3.75 12 3.75C10.755 3.75 9.75 4.755 9.75 6C9.75 7.245 10.755 8.25 12 8.25ZM6 8.25C7.245 8.25 8.2425 7.245 8.2425 6C8.2425 4.755 7.245 3.75 6 3.75C4.755 3.75 3.75 4.755 3.75 6C3.75 7.245 4.755 8.25 6 8.25ZM6 9.75C4.2525 9.75 0.75 10.6275 0.75 12.375V14.25H11.25V12.375C11.25 10.6275 7.7475 9.75 6 9.75ZM12 9.75C11.7825 9.75 11.535 9.765 11.2725 9.7875C12.1425 10.4175 12.75 11.265 12.75 12.375V14.25H17.25V12.375C17.25 10.6275 13.7475 9.75 12 9.75Z" fill="#6C6F80"/>
</svg>

<svg xmlns="http://www.w3.org/2000/svg" width="18" height="18" fill="none" viewBox="0 0 18 18">
  <path fill="#6C6F80" fill-rule="evenodd" d="M12 8.25A2.24 2.24 0 0 0 14.242 6 2.247 2.247 0 1 0 9.75 6 2.247 2.247 0 0 0 12 8.25Zm-6 0A2.24 2.24 0 0 0 8.242 6 2.247 2.247 0 1 0 3.75 6 2.247 2.247 0 0 0 6 8.25Zm0 1.5c-1.747 0-5.25.877-5.25 2.625v1.875h10.5v-1.875c0-1.748-3.503-2.625-5.25-2.625Zm6 0c-.217 0-.465.015-.727.037.87.63 1.477 1.478 1.477 2.588v1.875h4.5v-1.875c0-1.748-3.502-2.625-5.25-2.625Z" clip-rule="evenodd"/>
</svg>
